packages/icons/src/svg/24/printer_outline_24.svg

<svg width="24" height="24" viewBox="0 0 24 24" fill="none" xmlns="http://www.w3.org/2000/svg">
<g clip-path="url(#clip0)">
<path fill-rule="evenodd" clip-rule="evenodd" d="M11.1996 3.1001H11.1642H11.1642C10.6343 3.10008 10.1832 3.10007 9.81273 3.13034C9.42356 3.16213 9.04497 3.23177 8.68304 3.41618C8.13737 3.69421 7.69372 4.13786 7.41569 4.68353C7.23128 5.04546 7.16164 5.42405 7.12985 5.81321C7.10082 6.1685 7.09965 6.59807 7.09961 7.1001C6.59758 7.10013 6.16801 7.10131 5.81273 7.13034C5.42357 7.16213 5.04497 7.23177 4.68304 7.41618C4.13737 7.69421 3.69373 8.13786 3.41569 8.68353C3.23128 9.04546 3.16164 9.42405 3.12985 9.81321C3.09958 10.1836 3.0996 10.6348 3.09961 11.1647V11.1647V11.2001V12.8001V12.8355V12.8355C3.0996 13.3654 3.09958 13.8166 3.12985 14.187C3.16164 14.5761 3.23128 14.9547 3.41569 15.3167C3.69373 15.8623 4.13737 16.306 4.68304 16.584C5.04497 16.7684 5.42357 16.8381 5.81273 16.8699C6.16801 16.8989 6.59758 16.9001 7.09961 16.9001C7.09965 17.4021 7.10082 17.8317 7.12985 18.187C7.16164 18.5761 7.23128 18.9547 7.41569 19.3167C7.69372 19.8623 8.13737 20.306 8.68304 20.584C9.04497 20.7684 9.42356 20.8381 9.81273 20.8699C10.1832 20.9001 10.6343 20.9001 11.1642 20.9001L11.1996 20.9001H12.7996L12.835 20.9001C13.3649 20.9001 13.8161 20.9001 14.1865 20.8699C14.5757 20.8381 14.9543 20.7684 15.3162 20.584C15.8619 20.306 16.3055 19.8623 16.5835 19.3167C16.7679 18.9547 16.8376 18.5761 16.8694 18.187C16.8984 17.8317 16.8996 17.4021 16.8996 16.9001C17.4016 16.9001 17.8312 16.8989 18.1865 16.8699C18.5757 16.8381 18.9543 16.7684 19.3162 16.584C19.8619 16.306 20.3055 15.8623 20.5835 15.3167C20.7679 14.9547 20.8376 14.5761 20.8694 14.187C20.8996 13.8166 20.8996 13.3654 20.8996 12.8356V12.8355V12.8355V12.8355V12.8001V11.2001V11.1647V11.1647V11.1647V11.1646C20.8996 10.6348 20.8996 10.1836 20.8694 9.81321C20.8376 9.42405 20.7679 9.04546 20.5835 8.68353C20.3055 8.13786 19.8619 7.69421 19.3162 7.41618C18.9543 7.23177 18.5757 7.16213 18.1865 7.13034C17.8312 7.10131 17.4016 7.10013 16.8996 7.1001C16.8996 6.59807 16.8984 6.1685 16.8694 5.81321C16.8376 5.42405 16.7679 5.04546 16.5835 4.68353C16.3055 4.13786 15.8619 3.69421 15.3162 3.41618C14.9543 3.23177 14.5757 3.16213 14.1865 3.13034C13.8161 3.10007 13.3649 3.10008 12.835 3.1001H12.835H12.7996H11.1996ZM7.09961 14.0001V15.1001C6.5804 15.0999 6.2306 15.098 5.9593 15.0758C5.68146 15.0531 5.56611 15.0138 5.50022 14.9802C5.29324 14.8747 5.12496 14.7065 5.0195 14.4995C4.98593 14.4336 4.94657 14.3183 4.92387 14.0404C4.90031 13.7521 4.89961 13.375 4.89961 12.8001V11.2001C4.89961 10.6252 4.90031 10.2481 4.92387 9.95979C4.94657 9.68194 4.98593 9.5666 5.0195 9.50071C5.12496 9.29373 5.29324 9.12545 5.50022 9.01999C5.56611 8.98642 5.68146 8.94706 5.9593 8.92436C6.24766 8.9008 6.62471 8.9001 7.19961 8.9001H7.99961H15.9996H16.7996C17.3745 8.9001 17.7516 8.9008 18.0399 8.92436C18.3178 8.94706 18.4331 8.98642 18.499 9.01999C18.706 9.12545 18.8743 9.29373 18.9797 9.50071C19.0133 9.5666 19.0527 9.68194 19.0754 9.95979C19.0989 10.2481 19.0996 10.6252 19.0996 11.2001V12.8001C19.0996 13.375 19.0989 13.7521 19.0754 14.0404C19.0527 14.3183 19.0133 14.4336 18.9797 14.4995C18.8743 14.7065 18.706 14.8747 18.499 14.9802C18.4331 15.0138 18.3178 15.0531 18.0399 15.0758C17.7686 15.098 17.4188 15.0999 16.8996 15.1001V14.0001C16.8996 13.503 16.4967 13.1001 15.9996 13.1001H7.99961C7.50255 13.1001 7.09961 13.503 7.09961 14.0001ZM15.0996 7.1001C15.0994 6.58088 15.0975 6.23108 15.0754 5.95979C15.0527 5.68194 15.0133 5.5666 14.9797 5.50071C14.8743 5.29373 14.706 5.12545 14.499 5.01999C14.4331 4.98642 14.3178 4.94706 14.0399 4.92436C13.7516 4.9008 13.3745 4.9001 12.7996 4.9001H11.1996C10.6247 4.9001 10.2477 4.9008 9.9593 4.92436C9.68146 4.94706 9.56611 4.98642 9.50022 5.01999C9.29324 5.12545 9.12496 5.29373 9.0195 5.50071C8.98593 5.5666 8.94657 5.68194 8.92387 5.95979C8.9017 6.23108 8.89977 6.58088 8.89962 7.1001H15.0996ZM8.89961 14.9001V16.8001C8.89961 17.375 8.90031 17.7521 8.92387 18.0404C8.94657 18.3183 8.98593 18.4336 9.0195 18.4995C9.12496 18.7065 9.29324 18.8747 9.50022 18.9802C9.56611 19.0138 9.68146 19.0531 9.9593 19.0758C10.2477 19.0994 10.6247 19.1001 11.1996 19.1001H12.7996C13.3745 19.1001 13.7516 19.0994 14.0399 19.0758C14.3178 19.0531 14.4331 19.0138 14.499 18.9802C14.706 18.8747 14.8743 18.7065 14.9797 18.4995C15.0133 18.4336 15.0527 18.3183 15.0754 18.0404C15.0989 17.7521 15.0996 17.375 15.0996 16.8001V14.9001H8.89961ZM16.9996 10.1001C16.5026 10.1001 16.0996 10.503 16.0996 11.0001C16.0996 11.4972 16.5026 11.9001 16.9996 11.9001C17.4967 11.9001 17.8996 11.4972 17.8996 11.0001C17.8996 10.503 17.4967 10.1001 16.9996 10.1001Z" fill="currentColor"/>
</g>
<defs>
<clipPath id="clip0">
<rect width="24" height="24" fill="white"/>
</clipPath>
</defs>
</svg>

<svg xmlns="http://www.w3.org/2000/svg" width="24" height="24" viewBox="0 0 24 24" fill="currentColor"><path fill-rule="evenodd" d="M11.2 3.1h-.035c-.53 0-.981 0-1.352.03-.39.032-.768.102-1.13.286a2.9 2.9 0 0 0-1.267 1.267c-.184.362-.254.74-.286 1.13-.029.355-.03.785-.03 1.287-.502 0-.932.001-1.287.03-.39.032-.768.102-1.13.286a2.9 2.9 0 0 0-1.267 1.267c-.184.362-.254.74-.286 1.13-.03.37-.03.822-.03 1.352v1.67c0 .53 0 .981.03 1.352.032.389.102.768.286 1.13a2.9 2.9 0 0 0 1.267 1.267c.362.184.74.254 1.13.286.355.029.785.03 1.287.03 0 .502.001.932.03 1.287.032.389.102.768.286 1.13a2.9 2.9 0 0 0 1.267 1.267c.362.184.74.254 1.13.286.37.03.822.03 1.352.03h1.67c.53 0 .981 0 1.352-.03.389-.032.768-.102 1.13-.286a2.9 2.9 0 0 0 1.267-1.267c.184-.362.254-.741.286-1.13.029-.355.03-.785.03-1.287.502 0 .932-.001 1.287-.03.389-.032.768-.102 1.13-.286a2.9 2.9 0 0 0 1.267-1.267c.184-.362.254-.741.286-1.13.03-.37.03-.822.03-1.352v-1.67c0-.53 0-.981-.03-1.352-.032-.39-.102-.768-.286-1.13a2.9 2.9 0 0 0-1.267-1.267c-.362-.184-.741-.254-1.13-.286-.355-.029-.785-.03-1.287-.03 0-.502-.001-.932-.03-1.287-.032-.39-.102-.768-.286-1.13a2.9 2.9 0 0 0-1.267-1.267c-.362-.184-.741-.254-1.13-.286-.37-.03-.822-.03-1.352-.03zM7.1 14v1.1c-.52 0-.869-.002-1.14-.024-.278-.023-.394-.062-.46-.096a1.1 1.1 0 0 1-.48-.48c-.034-.066-.073-.182-.096-.46A17 17 0 0 1 4.9 12.8v-1.6c0-.575 0-.952.024-1.24.023-.278.062-.394.096-.46a1.1 1.1 0 0 1 .48-.48c.066-.034.182-.073.46-.096.288-.023.665-.024 1.24-.024h9.6c.575 0 .952 0 1.24.024.278.023.393.062.46.096a1.1 1.1 0 0 1 .48.48c.034.066.073.182.096.46.023.288.024.665.024 1.24v1.6c0 .575 0 .952-.024 1.24-.023.278-.062.394-.096.46a1.1 1.1 0 0 1-.48.48c-.067.034-.182.073-.46.096-.271.022-.62.024-1.14.024V14a.9.9 0 0 0-.9-.9H8a.9.9 0 0 0-.9.9m8-6.9c0-.52-.002-.869-.024-1.14-.023-.278-.062-.394-.096-.46a1.1 1.1 0 0 0-.48-.48c-.066-.034-.182-.073-.46-.096A17 17 0 0 0 12.8 4.9h-1.6c-.575 0-.952 0-1.24.024-.278.023-.394.062-.46.096a1.1 1.1 0 0 0-.48.48c-.034.066-.073.182-.096.46-.022.271-.024.62-.024 1.14zm-6.2 7.8v1.9c0 .575 0 .952.024 1.24.023.278.062.393.096.46a1.1 1.1 0 0 0 .48.48c.066.034.182.073.46.096.288.023.665.024 1.24.024h1.6c.575 0 .952 0 1.24-.024.278-.023.394-.062.46-.096a1.1 1.1 0 0 0 .48-.48c.034-.067.073-.182.096-.46.023-.288.024-.665.024-1.24v-1.9zm8.1-4.8a.9.9 0 1 0 0 1.8.9.9 0 0 0 0-1.8" clip-rule="evenodd"/></svg>
